assets/A button blood type/Flat/a_button_blood_type_flat.svg

<svg width="32" height="32" viewBox="0 0 32 32" fill="none" xmlns="http://www.w3.org/2000/svg">
<path d="M2 6C2 3.79086 3.79086 2 6 2H26C28.2091 2 30 3.79086 30 6V26C30 28.2091 28.2091 30 26 30H6C3.79086 30 2 28.2091 2 26V6Z" fill="#F92F60"/>
<path d="M17.5369 8.77836C17.267 8.11636 16.6216 7.68507 15.9067 7.68899C15.1919 7.69292 14.5512 8.13127 14.2887 8.7962L9.10679 21.9183C8.7518 22.8172 9.19277 23.8337 10.0917 24.1887C10.9907 24.5437 12.0072 24.1027 12.3622 23.2038L13.0658 21.422C13.0846 21.3743 13.1307 21.3429 13.1821 21.3429H18.7951C18.8459 21.3429 18.8917 21.3737 18.9108 21.4207L19.645 23.2216C20.0098 24.1166 21.0311 24.5464 21.9261 24.1816C22.8211 23.8167 23.2509 22.7954 22.886 21.9004L17.5369 8.77836ZM17.3822 17.6707C17.4157 17.7529 17.3552 17.8429 17.2664 17.8429H14.6629C14.5747 17.8429 14.5143 17.754 14.5467 17.672L15.8277 14.4279C15.8691 14.3231 16.0172 14.3223 16.0597 14.4267L17.3822 17.6707Z" fill="white"/>
</svg>

<svg xmlns="http://www.w3.org/2000/svg" width="32" height="32" fill="none"><path fill="#F92F60" d="M2 6a4 4 0 0 1 4-4h20a4 4 0 0 1 4 4v20a4 4 0 0 1-4 4H6a4 4 0 0 1-4-4V6Z"/><path fill="#fff" d="M17.537 8.778a1.75 1.75 0 0 0-3.248.018L9.107 21.918a1.75 1.75 0 1 0 3.255 1.286l.704-1.782a.125.125 0 0 1 .116-.08h5.613c.05 0 .097.032.116.079l.734 1.8a1.75 1.75 0 1 0 3.241-1.32l-5.35-13.123Zm-.155 8.893a.125.125 0 0 1-.116.172h-2.603a.125.125 0 0 1-.116-.171l1.28-3.244a.125.125 0 0 1 .233-.001l1.322 3.244Z"/></svg>
